X:1
T:Wait! Wait! Jesus Will Come!
T:Wait! Wait! Jesus Will Come!
T:Edwin Smith Ufford
T:Edwin Smith Ufford, 1892
T:Public Domain Courtesy of the Cyber Hymnal™
T:Public Domain Courtesy of the Cyber Hymnal™
C:Edwin Smith Ufford
Z:Public Domain
Z:Courtesy of the Cyber Hymnal™
%%score 1 2
L:1/8
Q:1/4=88
M:6/8
K:Bb
V:1 treble 
V:2 bass 
V:1
 [DF][DB][Ec] [Fd]2 [DB] | [Ec][EB][EG] [DF]3 | [DF][B,D][DF] [DB][Ec][Fd] | [EG][EA][DB] [Fc]3 | %4
w: 1.~Watch ye and wait, O|breth- ren of God,|Wait for the com- ing of|Je- sus our Lord;|
w: 2.~Stead- fast- ly wait, and|pa- tient- ly pray,|Thus did our fa- thers who|“wished for the day”;|
w: 3.~Some day the sky will|part like a scroll,|O- ver the earth will the|judg- ment trump roll;|
 [DF][DB][Ec] [Fd]2 [DB] | [Ec][EB][EG] [EG]3 | [DF][B,D][DF] [DB][Ec][Fd] | [Ec][EG][EA] [DB]3 || %8
w: Ag- es have passed, yet|bright grows the dawn,|Je- sus has prom- ised to|come in the morn.|
w: Cheer- ful they toiled and|calm- ly did die,|Wait- ing for Je- sus to|come from the sky.|
w: But to the saints ’twill|hap- pi- ness bring,|Since they have wait- ed so|long for their king.|
"^Refrain" [Fd]3 [DB]3 | [Ec][EB][EG] [DF]3 | [DF][B,D][DF] [DB][Ec][Fd] | [EG][EA][DB] [Fc]3 | %12
w: ||||
w: Wait! wait!|Je- sus will come,|Soon will our bride- groom des-|cend from His throne;|
w: ||||
 [Fd]3 [DB]3 | [Ec][EB][EG] [EG]3 | [DF][B,D][DF] [DB][Ec][Fd] | [Ec][EG][EA] [DB]3 |] %16
w: ||||
w: Wait! wait!|Je- sus will come,|Je- sus is com- ing a-|gain to His own.|
w: ||||
V:2
 [B,,B,][B,,F,][B,,F,] [B,,B,]2 [B,,F,] | [E,G,][E,G,][E,B,] [B,,B,]3 | %2
 [B,,B,][B,,F,][B,,B,] [B,,F,][B,,F,][B,,B,] | [E,B,][C,F,][B,,F,] [F,A,]3 | %4
 [B,,B,][B,,F,][B,,F,] [B,,B,]2 [B,,F,] | [E,G,][E,G,][E,B,] [E,B,]3 | %6
 [B,,B,][B,,F,][B,,B,] [B,,F,][B,,F,][B,,B,] | [F,A,][F,B,][F,C] [B,,B,]3 || [B,,B,]3 [B,,F,]3 | %9
 [E,G,][E,G,][E,B,] [B,,B,]3 | [B,,B,][B,,F,][B,,B,] [B,,F,][B,,F,][B,,B,] | %11
 [E,B,][C,F,][B,,F,] [F,A,]3 | [B,,B,]3 [B,,F,]3 | [E,G,][E,G,][E,B,] [E,B,]3 | %14
 [B,,B,][B,,F,][B,,B,] [B,,F,][B,,F,][B,,B,] | [F,A,][F,B,][F,C] [B,,B,]3 |] %16

